X: 799
T: Toccata
C: Anonim
L: 1/8
M: C|
N: Derived from pl-sa--l-1636--085_anonim--toccata.krn
%%staves {1 2}
V: 1 clef=treble
V: 2 clef=bass
K: F
[V:1] FG ABc4 & x2FGA4 | 
[V:2] [F,4C,4A,,4F,,4]F,,G,,A,,B,, | 
[V:1] CDEFG4 & x2CDE4 | 
[V:2] [G,4E,4]_d d d d & C,4x4 | 
[V:1] GABcd4 & x2GAB4 | 
[V:2] [G,4G,,4]G,,A,,B,,C, | 
[V:1] defga4 & x2def4 | 
[V:2] F,4D,E,F,G, & D,4x4 | 
[V:1] z agf2<e2d/e/ | 
[V:2] ^C2D4^C2 & A,8 | 
[V:1] df_ed2<c2B/c/ | 
[V:2] D2B,4A,2 & D,2_E,2F,4 | 
[V:1] BdcB2<A2G/A/ | 
[V:2] B,2G,4^F,2 & B,,2C,2D,4 | 
[V:1] GBAG FEFG & x GFE DCDE | 
[V:2] G,2A,2B,2A,G, | 
[V:1] AGABc4 & FEFGA4 | 
[V:2] F,2F,,2F,,G,,A,,B,, | 
[V:1] [c4G4][c4A4] & E4F4 | 
[V:2] C,D,E,C, F,F,,A,,B,, | 
[V:1] z cBA2<G2B | 
[V:2] E,2F,3E,/D,/E,2 & C,8 | 
[V:1] [A4F4C4]D4 ||  
[V:2] [F,4C,4F,,4]F,,4 ||  
[V:1] [M:3/2][A8F8]G4 & x8E4 | 
[V:2] [M:3/2]F,12 & F,,4G,,4A,,4 | 
[V:1] F4G4A4 & D12 | 
[V:2] F,12 & B,,8A,,4 | 
[V:1] B12 & D4E4F4 | 
[V:2] G,12 & G,,12 | 
[V:1] [B8G8]A4 & x8F4 | 
[V:2] G,12 & G,,4A,,4B,,4 | 
[V:1] [G12E12] | 
[V:2] G,4A,4B,4 & C,12 | 
[V:1] G4A4B4 & E12 | 
[V:2] C12 & C,12 | 
[V:1] c12 & E4F4G4 | 
[V:2] C12 & C,4D,4E,4 | 
[V:1] c4d4e4 & A12 | 
[V:2] C12 & F,12 | 
[V:1] f8e4 & A4B4c4 | 
[V:2] C12 & F,4G,4A,4 | 
[V:1] d8c4 & B8A4 | 
[V:2] B,12 & B,,4C,4D,4 | 
[V:1] B4c4d4 & G4A4B4 | 
[V:2] B,8F,4 & _E,8D,4 | 
[V:1] [_e8c8]d4 & z8B4 | 
[V:2] G,12 & C,4D,4_E,4 | 
[V:1] c4B4A4 & A4G4F4 | 
[V:2] C12 & F,4G,4A,4 | 
[V:1] G12 & F8E4 | 
[V:2] B,4G,4C4[K:clef=alto] | 
[V:1]  [K:F] c8d4- & A12 | 
[V:2]  [K:F] [F12F,12] | 
[V:1] d4c4f4 | 
[V:2] [K:clef=C1]G8c4 & E12 | 
[V:1] f12 | 
[V:2] c8B4 & D12 | 
[V:1] _e12 | 
[V:2] B8A4 & C12 | 
[V:1] d12 | 
[V:2] A8G4 & B,12 | 
[V:1] c12 | 
[V:2] G8F4 & A,12 | 
[V:1] B12 | 
[V:2] [K:clef=alto]F8E4 & G,12 | 
[V:1] A12 | 
[V:2] E8x4 | 
[V:1] G8g4 | 
[V:2] D8C4 & E,12 | 
[V:1] f12 | 
[V:2] C8B,4 & D,12 | 
[V:1] _e12 | 
[V:2] [K:clef=tenor]B,8A,4 & C,12 | 
[V:1] d12 | 
[V:2] [K:clef=bass]A,8G,4 & B,,12 | 
[V:1] c12 | 
[V:2] G,8F,4 & A,,12 | 
[V:1] B12 | 
[V:2] F,8E,4 & G,,12 | 
[V:1] A12 & F8F4 | 
[V:2] F,12 & F,,12 | 
[V:1] G8c4 & E12 | 
[V:2] G,8A,4 & C,12 | 
[V:1] c4B4A4 & C12 | 
[V:2] E,8F,4 & C,12 | 
[V:1] G8F4 & C12 | 
[V:2] E,4A,8 & C,12 | 
[V:1] E4A8 & C12 | 
[V:2] G,8F,4 | 
[V:1] G8F4 & C12 | 
[V:2] F,4E,4A,4 & C,12 | 
[V:1] E4D4E4 & C12 ||  
[V:2] G,4F,4G,4 & C,12 ||  
[V:1] [M:C]z/ c/B/A/ B/G/c/B/ cdc2 & F2x2AB-BA | 
[V:2] [K:clef=tenor][M:C]A,F- FE F,/F/_E/D/ _E/C/F/_E/ & F,2G,2x4 | 
[V:1] z/ f/_e/d/ e/c/f/_e/d2c2 & x2x2B2A2 | 
[V:2] [K:clef=alto]FB BA[K:clef=tenor] z/ B,/D/E/ F/F,/A,/B,/ & D2C2x4 | 
[V:1] GAG2z/ c/B/A/ B/G/c/B/ & EF FEx4 | 
[V:2] z/ C/B,/A,/ B,/G,/C/B,/ EF- FE & x2x2A,2G,2 | 
[V:1] cdc2z/ F/_E/D/ _E/C/F/E/ & AB BAx4 | 
[V:2] z/ F,/_E,/D,/ E,/C,/F,/_E,/[K:clef=bass] A,B,- B,A, & x4D,2C,2 | 
[V:1] D/d/c/B/ c/A/d/c/ ded2 & z4=Bc c^B | 
[V:2] A,G, G,^F, G,,/G,/F,/E,/ F,/D,/G,/F,/[K:clef=tenor] & B,,2A,,2x4 | 
[V:1] c2F/D/G/F/ GAG2 & z/ G/F/E/x2EF FE | 
[V:2] G,C C=B, C,/C/B,/A,/ B,/G,/C/B,/ & E,2D,2x4 | 
[V:1] z/ c/B/A/ B/G/c/B/ A/f/_e/d/ _e/c/f/_e/ | 
[V:2] CF- FE- EDC2 & A,2G,2F,B, B,A, | 
[V:1] d2c2B2A2 & z B BA- AG- GF- | 
[V:2] [K:clef=alto]z/ F/E/D/ E/C/F/E/ D/B,/_E/D/ C/A,/D/C/ & B,2C2x4 | 
[V:1] G2F2[K:clef=C1]E2D2 & FE- ED- DC- C^B, | 
[V:2] B,/G,/C/B,/ A,/F,/B,/A,/[K:clef=bass] G,/G,,/A,,/A,/ F,/D,/G,/G,,/ | 
[V:1] C/A/G/F/ G/E/A/G/ ABA2 & x4FG G F | 
[V:2] x2G,2[K:clef=tenor]F,/F/_E/D/ _E/C/F/E/ & xF, F,E,x4 | 

